src/assets/outline/Forward5Seconds.svg

<?xml version="1.0" encoding="UTF-8"?>
<svg width="24" height="24" viewBox="0 0 24 24" xmlns="http://www.w3.org/2000/svg">
 <path d="m13.98 5.2199c-0.22 0-0.4399-0.09997-0.5799-0.27997l-1.9801-2.47c-0.26-0.32-0.21-0.79999 0.12-1.05s0.7901-0.21 1.0501 0.12l1.98 2.47c0.26 0.32 0.21 0.79999-0.12 1.05-0.14 0.1-0.3101 0.15997-0.4701 0.15997z"/>
 <path d="m12 22.75c-5.31 0-9.64-4.32-9.64-9.64 0-5.32 4.32-9.64 9.64-9.64 0.69 0 1.39 0.08001 2.15 0.26001 0.4 0.09 0.66 0.50002 0.56 0.90002-0.09 0.4-0.49 0.66-0.9 0.56-0.64-0.15-1.24-0.22003-1.81-0.22003-4.49 0-8.14 3.65-8.14 8.14 0 4.49 3.65 8.14 8.14 8.14 4.49 0 8.14-3.65 8.14-8.14 0-1.74-0.57-3.42-1.65-4.86-0.25-0.33-0.18-0.79999 0.15-1.05s0.8-0.18003 1.05 0.14997c1.28 1.7 1.95 3.69 1.95 5.76 0 5.32-4.33 9.64-9.64 9.64z"/>
 <path d="m12.38 16.92h-2.2899c-0.41004 0-0.75004-0.34-0.75004-0.75s0.34-0.75 0.75004-0.75h2.2899c0.43 0 0.78-0.3499 0.78-0.7799s-0.35-0.7801-0.78-0.7801h-2.2899c-0.24004 0-0.47009-0.12-0.61009-0.31s-0.17997-0.4499-0.09997-0.6799l0.75996-2.29c0.1-0.31 0.39-0.51 0.71-0.51h3.06c0.41 0 0.75 0.34 0.75 0.75s-0.34 0.75-0.75 0.75h-2.52l-0.26 0.7899h1.25c1.26 0 2.28 1.0201 2.28 2.2801s-1.02 2.2799-2.28 2.2799z"/>
</svg>

<svg width="24" height="24" viewBox="0 0 24 24"  xmlns="http://www.w3.org/2000/svg">
<path d="M13.9797 5.21993C13.7597 5.21993 13.5398 5.11996 13.3998 4.93996L11.4197 2.46993C11.1597 2.14993 11.2097 1.66994 11.5397 1.41994C11.8697 1.16994 12.3298 1.20994 12.5898 1.53994L14.5698 4.00997C14.8298 4.32997 14.7798 4.80996 14.4498 5.05996C14.3098 5.15996 14.1397 5.21993 13.9797 5.21993Z" />
<path d="M11.9999 22.75C6.68988 22.75 2.35986 18.43 2.35986 13.11C2.35986 7.78999 6.67988 3.46997 11.9999 3.46997C12.6899 3.46997 13.3899 3.54998 14.1499 3.72998C14.5499 3.81998 14.8099 4.23 14.7099 4.63C14.6199 5.03 14.2199 5.29 13.8099 5.19C13.1699 5.04 12.5699 4.96997 11.9999 4.96997C7.50988 4.96997 3.85986 8.61999 3.85986 13.11C3.85986 17.6 7.50988 21.25 11.9999 21.25C16.4899 21.25 20.1399 17.6 20.1399 13.11C20.1399 11.37 19.5699 9.69 18.4899 8.25C18.2399 7.92 18.3099 7.45001 18.6399 7.20001C18.9699 6.95001 19.4399 7.01998 19.6899 7.34998C20.9699 9.04998 21.6399 11.04 21.6399 13.11C21.6399 18.43 17.3099 22.75 11.9999 22.75Z" />
<path d="M12.3801 16.92H10.0902C9.68016 16.92 9.34016 16.58 9.34016 16.17C9.34016 15.76 9.68016 15.42 10.0902 15.42H12.3801C12.8101 15.42 13.1601 15.0701 13.1601 14.6401C13.1601 14.2101 12.8101 13.86 12.3801 13.86H10.0902C9.85016 13.86 9.62011 13.74 9.48011 13.55C9.34011 13.36 9.30014 13.1001 9.38014 12.8701L10.1401 10.5801C10.2401 10.2701 10.5301 10.0701 10.8501 10.0701H13.9101C14.3201 10.0701 14.6601 10.4101 14.6601 10.8201C14.6601 11.2301 14.3201 11.5701 13.9101 11.5701H11.3901L11.1301 12.36H12.3801C13.6401 12.36 14.6601 13.3801 14.6601 14.6401C14.6601 15.9001 13.6401 16.92 12.3801 16.92Z" />
</svg>
